packages/tokens/icons/facetSearch/size24Px.svg

<svg viewBox="0 0 24 24" fill="none" xmlns="http://www.w3.org/2000/svg" width="1em" height="1em"><circle cx="15.5" cy="11.5" r="4" stroke="currentColor"/><path d="M21.5 17.5L18.5 14.4998" stroke="currentColor" stroke-linecap="round" stroke-linejoin="round"/><path d="M17.5 6.44294C17.5 6.18765 17.5 5.24904 17.5 4.49958C17.5 3.9473 17.0523 3.5 16.5 3.5L3.5 3.5C2.94772 3.5 2.5 3.94772 2.5 4.5L2.5 20.5C2.5 21.0523 2.94772 21.5 3.5 21.5L16.5 21.5C17.0523 21.5 17.5 21.0523 17.5 20.5L17.5 16.8261" stroke="currentColor" stroke-linecap="round"/><path d="M9.5 17.5H14.5" stroke="currentColor" stroke-linecap="round"/><rect x="5.5" y="16.5" width="2" height="2" rx="0.5" stroke="currentColor"/><path d="M9.5 12.5L10 12.5" stroke="currentColor" stroke-linecap="round"/><rect x="5.5" y="11.5" width="2" height="2" rx="0.5" stroke="currentColor"/><path d="M9.5 7.5H11.5" stroke="currentColor" stroke-linecap="round"/><path d="M5.5 7C5.5 6.72386 5.72386 6.5 6 6.5H7C7.27614 6.5 7.5 6.72386 7.5 7V8C7.5 8.27614 7.27614 8.5 7 8.5H6C5.72386 8.5 5.5 8.27614 5.5 8V7Z" stroke="currentColor"/></svg>

<svg xmlns="http://www.w3.org/2000/svg" fill="none" viewBox="0 0 24 24" width="1em" height="1em"><circle cx="15.5" cy="11.5" r="4" stroke="currentColor"/><path stroke="currentColor" stroke-linecap="round" stroke-linejoin="round" d="m21.5 17.5-3-3"/><path stroke="currentColor" stroke-linecap="round" d="M17.5 6.443V4.5a1 1 0 0 0-1-1h-13a1 1 0 0 0-1 1v16a1 1 0 0 0 1 1h13a1 1 0 0 0 1-1v-3.674m-8 .674h5"/><rect width="2" height="2" x="5.5" y="16.5" stroke="currentColor" rx=".5"/><path stroke="currentColor" stroke-linecap="round" d="M9.5 12.5h.5"/><rect width="2" height="2" x="5.5" y="11.5" stroke="currentColor" rx=".5"/><path stroke="currentColor" stroke-linecap="round" d="M9.5 7.5h2"/><path stroke="currentColor" d="M5.5 7a.5.5 0 0 1 .5-.5h1a.5.5 0 0 1 .5.5v1a.5.5 0 0 1-.5.5H6a.5.5 0 0 1-.5-.5V7Z"/></svg>
